X:1
T:Mahler No.2
T:Mahler No.2 
T:Trombone 1 
T:Gustav Mahler
C:Gustav Mahler
L:1/8
Q:1/4=80
M:4/4
K:Db
V:1 bass nm="Trombone" snm="Tbn."
V:1
!pp! !tenuto!D4 !tenuto!C4 | !tenuto!D4 !tenuto!B,4 | !tenuto!E2 D_C !tenuto!D2 !tenuto!G,2 | %3
 !tenuto!_C4 !breath!!tenuto!B,4 | !tenuto!C4 !tenuto!B,4 | !tenuto!C4 !tenuto!F4 | %6
 !tenuto!E2 !tenuto!A2 !tenuto!=G2 !tenuto!F2 | C6 z2 |!p! !tenuto!F4 !tenuto!=G4 | F4 z2 CE | %10
 A2 =G2 F4 | E4 z4 | z8 | z4!<(! _C2 =C2!<)! |!f! D4 D4 | E4 =B,4 |!<(! =D2 E2 _D2 C2!<)! | %17
!ff!!p!!<(! C8-!<)! |!f!!<(! (C4!ff!!>(! (=B,4)!<)!!>)! |[K:C]!p! C2) z2 z4 | z4 z4 | %21
!ff!!>(! G,,8-!>)! | G,,4 z2 G,2 | C4 D4 | E4 z2 G,C | E2 DC (D3 E) | E4 z2 (3G,CG, | F4 D4 | %28
 E4 z2 (3CG,C | F4 _A4 | c4 z4 | z4 z2!ff! G,2 | D4 _E4 | D4 z2 (3G,D,G, | D4 _E4 | D4 z2 (3DG,D | %36
 G4 z4 | z8 |!mf! C6 _E_D |!>(! C6 _E_D!>)! |!p! C8 | z8 | z8 | z8 | !fermata!z8 | _A,4 G,4 | %46
 _A,4 _E,4 | .B,2 .^A, z/ .B,/ ^F,4 | ._E2 .D z/ .E/ _B,4 | z8 | z8 | z8 | z8 |[K:Ab]!ff! D4 C4 | %54
 D4 B,4 | E2 D_C D2 _G,2 | _C4 B,4 | C4 B,4 | C4 F4 | E2 A2 G2 F2 | !breath!c8 | F4 G4 | %62
 F4 z2 A,2 | F4 _G4 | F4 z4 | =D4 E4 | F4 G2 F2 | F2 z2 z4 | z8 | z8 | z8 | D4 C4 | D4 B,4 | z8 | %74
!fff! B,4 D4 | F,8- | F,2 z2!ff! B,2 D2 | F6 z2 |!ff! !tenuto!B,2 D z/ F,/ !tenuto!B,2 D z/ F/ | %79
 B4 =A4 | A4 G4 | _G4 D4 | C8 | F,8 | =E,8 |!ff! D,4 C,3 D, |!>(! G,,8-!>)! |!pp! G,,8 | %88
 !fermata!z8 |[M:2/2][Q:1/2=90]"^\n" z4 z2!ff! =B,C | D4- DC=B,C | A,2 F,2 z2 =B,C | %92
 (D3 C) =B,CFA | c2 z2 z A,B,C | D4 z A,B,C | D2 z2 z2 A,2 | D4- DCB,C | D2 G,2 z2 G,2 | %98
 D4- DCB,C | ^C2 =D2 z2 CD | ^D2 =E2 z2 A,D | ^D2 =E2 z2 G,E | F4- F=E=DE | F2 C2 z2 =EF | %104
[Q:1/2=104]"^\n" _G4- GF=EF | ._G2 .C2 z2 .G2 | .C2 z2 ._G2 .C2 | z2 ._G2 .C2 z2 | %108
!fff! !^!_G4 .C2 z2 | !^!_G4 .C2 z2 | _G8- | (3:2:2G4 .F2 (3.=E2 ._E2 .=D2 | .D2 .D,2 z4 | z4 z4 | %114
!ff! =B4 =A3 B | ^F8 | z8 | =E4 =D3 E | =B,8 | z8 | =B,4 =A,3 B, | B,8- | B,8 |] %123

